layout/main/dist/assets/main/img/contacts/github.svg

<svg width="36" height="37" viewBox="0 0 36 37" fill="none" xmlns="http://www.w3.org/2000/svg">
<path d="M34 19.5C34 29.165 26.8366 36.5 18 36.5C9.16344 36.5 2 29.165 2 19.5C2 9.83502 9.16344 2 18 2C26.8366 2 34 9.83502 34 19.5Z" fill="white"/>
<path d="M17.9977 0.374512C8.0595 0.374512 0 8.46551 0 18.4465C0 26.4295 5.157 33.202 12.312 35.5938C13.212 35.7603 13.5405 35.2023 13.5405 34.723C13.5405 34.2933 13.5247 33.157 13.5157 31.6495C8.5095 32.7408 7.452 29.2263 7.452 29.2263C6.63525 27.1383 5.454 26.5825 5.454 26.5825C3.81825 25.462 5.5755 25.4845 5.5755 25.4845C7.38225 25.6128 8.33175 27.3475 8.33175 27.3475C9.93825 30.1083 12.546 29.3118 13.572 28.8483C13.734 27.6805 14.1997 26.884 14.715 26.4318C10.719 25.975 6.516 24.4248 6.516 17.5015C6.516 15.5283 7.218 13.915 8.37 12.6505C8.18325 12.1938 7.56675 10.3555 8.5455 7.86926C8.5455 7.86926 10.0575 7.38326 13.4955 9.72101C14.931 9.32051 16.47 9.12026 18.0023 9.11351C19.53 9.12251 21.0712 9.32051 22.509 9.72326C25.9447 7.38551 27.4545 7.87151 27.4545 7.87151C28.4355 10.36 27.819 12.196 27.6345 12.6528C28.7887 13.9173 29.484 15.5305 29.484 17.5038C29.484 24.445 25.2765 25.9728 21.267 26.4205C21.9127 26.9785 22.4888 28.081 22.4888 29.7663C22.4888 32.1828 22.4662 34.1313 22.4662 34.723C22.4662 35.2068 22.7902 35.7693 23.7038 35.5915C30.8475 33.1975 36 26.4273 36 18.4465C36 8.46551 27.9405 0.374512 17.9977 0.374512Z" fill="#5C6BC0"/>
</svg>

<svg width="36" height="37" viewBox="0 0 36 37" fill="none" xmlns="http://www.w3.org/2000/svg"><path d="M34 19.5c0 9.665-7.163 17-16 17s-16-7.335-16-17S9.163 2 18 2s16 7.835 16 17.5z" fill="#fff"/><path d="M17.998.375C8.059.375 0 8.465 0 18.447a18.07 18.07 0 0012.312 17.147c.9.166 1.229-.392 1.229-.871 0-.43-.016-1.566-.025-3.073-5.007 1.09-6.064-2.424-6.064-2.424-.817-2.088-1.998-2.643-1.998-2.643-1.636-1.121.122-1.098.122-1.098 1.806.128 2.756 1.863 2.756 1.863 1.606 2.76 4.214 1.964 5.24 1.5.162-1.168.628-1.964 1.143-2.416-3.996-.457-8.199-2.007-8.199-8.93 0-1.974.702-3.587 1.854-4.851-.187-.457-.803-2.296.176-4.782 0 0 1.511-.486 4.95 1.852 1.435-.4 2.974-.6 4.506-.607a17.2 17.2 0 014.507.61c3.436-2.338 4.945-1.852 4.945-1.852.982 2.488.365 4.324.18 4.78 1.155 1.265 1.85 2.879 1.85 4.852 0 6.941-4.208 8.469-8.217 8.916.646.558 1.222 1.661 1.222 3.346 0 2.417-.023 4.365-.023 4.957 0 .484.324 1.046 1.238.869A18.072 18.072 0 0036 18.447C36 8.466 27.94.375 17.998.375z" fill="#5C6BC0"/></svg>
